src/assets/icons/instagram.svg

<svg width="14" height="14" viewBox="0 0 14 14" fill="none" xmlns="http://www.w3.org/2000/svg">
<g id="instagram">
<g clip-path="url(#clip0_156_4483)">
<path id="Vector" d="M7.00006 3.40916C5.01195 3.40916 3.40919 5.01189 3.40919 7C3.40919 8.98811 5.01195 10.5908 7.00006 10.5908C8.98817 10.5908 10.5909 8.98811 10.5909 7C10.5909 5.01189 8.98817 3.40916 7.00006 3.40916ZM7.00006 9.33843C5.7126 9.33843 4.66162 8.28746 4.66162 7C4.66162 5.71254 5.7126 4.66157 7.00006 4.66157C8.28752 4.66157 9.3385 5.71254 9.3385 7C9.3385 8.28746 8.28752 9.33843 7.00006 9.33843ZM11.5806 3.26023C11.5806 3.72441 11.204 4.10104 10.7398 4.10104C10.2756 4.10104 9.89903 3.72441 9.89903 3.26023C9.89903 2.79604 10.2756 2.41947 10.7398 2.41947C11.204 2.41947 11.5806 2.79604 11.5806 3.26023ZM13.9541 4.1098C13.9015 2.98875 13.6475 1.99028 12.8243 1.17577C12.001 0.352499 11.0113 0.0985298 9.89027 0.0459806C8.73419 -0.0153269 5.26593 -0.0153269 4.10985 0.0459806C2.9888 0.0985298 1.99913 0.352499 1.17586 1.17577C0.352586 1.99904 0.0985909 2.98875 0.0460416 4.1098C-0.0152658 5.26589 -0.0152658 8.73411 0.0460416 9.8902C0.0985909 11.0112 0.352586 12.0097 1.17586 12.8242C1.99913 13.6475 2.9888 13.9015 4.10985 13.954C5.26593 14.0153 8.73419 14.0153 9.89027 13.954C11.0113 13.9015 12.0098 13.6475 12.8243 12.8242C13.6475 12.001 13.9015 11.0112 13.9541 9.8902C14.0154 8.73411 14.0154 5.26589 13.9541 4.1098ZM12.4652 11.1338C12.22 11.7469 11.747 12.2199 11.1339 12.4651C10.2143 12.833 8.02477 12.7454 7.00006 12.7454C5.97535 12.7454 3.7858 12.8242 2.86619 12.4651C2.25311 12.2199 1.78016 11.7469 1.53493 11.1338C1.16709 10.2142 1.25468 8.02471 1.25468 7C1.25468 5.97529 1.17585 3.78576 1.53493 2.86615C1.78016 2.25308 2.25311 1.78012 2.86619 1.53489C3.7858 1.16704 5.97535 1.25462 7.00006 1.25462C8.02477 1.25462 10.2143 1.1758 11.1339 1.53489C11.747 1.78012 12.22 2.25308 12.4652 2.86615C12.833 3.78576 12.7454 5.97529 12.7454 7C12.7454 8.02471 12.833 10.2142 12.4652 11.1338Z" fill="black"/>
</g>
</g>
<defs>
<clipPath id="clip0_156_4483">
<rect width="14" height="14" fill="white"/>
</clipPath>
</defs>
</svg>

<svg xmlns="http://www.w3.org/2000/svg" fill="none" viewBox="0 0 14 14"><g clip-path="url(#a)"><path fill="#000" d="M7 3.41A3.585 3.585 0 0 0 3.41 7 3.585 3.585 0 0 0 7 10.59 3.584 3.584 0 0 0 10.59 7 3.585 3.585 0 0 0 7 3.41m0 5.928A2.344 2.344 0 0 1 4.662 7 2.344 2.344 0 0 1 7 4.662 2.344 2.344 0 0 1 9.34 7 2.344 2.344 0 0 1 7 9.338m4.58-6.078a.841.841 0 1 1-1.681 0 .841.841 0 0 1 1.682 0m2.374.85c-.053-1.121-.306-2.12-1.13-2.934C12.001.352 11.011.099 9.89.046c-1.156-.061-4.624-.061-5.78 0C2.989.099 2 .352 1.176 1.176.353 1.999.099 2.989.046 4.11c-.061 1.156-.061 4.624 0 5.78.053 1.121.307 2.12 1.13 2.934.823.824 1.813 1.078 2.934 1.13 1.156.061 4.624.061 5.78 0 1.121-.053 2.12-.306 2.934-1.13.824-.823 1.078-1.813 1.13-2.934.061-1.156.061-4.624 0-5.78m-1.489 7.024a2.37 2.37 0 0 1-1.331 1.331c-.92.368-3.11.28-4.134.28s-3.214.08-4.134-.28a2.37 2.37 0 0 1-1.331-1.331c-.368-.92-.28-3.11-.28-4.134s-.08-3.214.28-4.134a2.37 2.37 0 0 1 1.331-1.331c.92-.368 3.11-.28 4.134-.28s3.214-.08 4.134.28a2.37 2.37 0 0 1 1.331 1.331c.368.92.28 3.11.28 4.134s.088 3.214-.28 4.134"/></g><defs><clipPath id="a"><path fill="#fff" d="M0 0h14v14H0z"/></clipPath></defs></svg>
